icons/folder-cross.svg

<svg xmlns="http://www.w3.org/2000/svg" width="24" height="24" viewBox="0 0 24 24">
  <path d="M11,4 L13,6 L20,6 C21.1045695,6 22,6.8954305 22,8 L22,18 C22,19.1045695 21.1045695,20 20,20 L4,20 C2.8954305,20 2,19.1045695 2,18 L2,6 C2,4.8954305 2.8954305,4 4,4 L11,4 Z M10.6128994,10.2097046 C10.2206082,9.90467972 9.65337718,9.93240926 9.29289322,10.2928932 C8.90236893,10.6834175 8.90236893,11.3165825 9.29289322,11.7071068 L9.29289322,11.7071068 L10.585,13 L9.29289322,14.2928932 L9.20970461,14.3871006 C8.90467972,14.7793918 8.93240926,15.3466228 9.29289322,15.7071068 C9.68341751,16.0976311 10.3165825,16.0976311 10.7071068,15.7071068 L10.7071068,15.7071068 L12,14.415 L13.2928932,15.7071068 L13.3871006,15.7902954 C13.7793918,16.0953203 14.3466228,16.0675907 14.7071068,15.7071068 C15.0976311,15.3165825 15.0976311,14.6834175 14.7071068,14.2928932 L14.7071068,14.2928932 L13.415,13 L14.7071068,11.7071068 L14.7902954,11.6128994 C15.0953203,11.2206082 15.0675907,10.6533772 14.7071068,10.2928932 C14.3165825,9.90236893 13.6834175,9.90236893 13.2928932,10.2928932 L13.2928932,10.2928932 L12,11.585 L10.7071068,10.2928932 Z"/>
</svg>

<svg xmlns="http://www.w3.org/2000/svg" viewBox="0 0 24 24">
  <path d="m11 4 2 2h7a2 2 0 0 1 2 2v10a2 2 0 0 1-2 2H4a2 2 0 0 1-2-2V6c0-1.1.9-2 2-2h7zm-.39 6.21a1 1 0 0 0-1.32 1.5L10.6 13l-1.3 1.3-.08.09a1 1 0 0 0 1.5 1.32L12 14.4l1.3 1.3.09.08a1 1 0 0 0 1.32-1.5L13.4 13l1.3-1.3.08-.09a1 1 0 0 0-1.5-1.32L12 11.6l-1.3-1.3z"/>
</svg>
